src/assets/img/services-shield.svg

<svg width="48" height="48" viewBox="0 0 48 48" fill="none" xmlns="http://www.w3.org/2000/svg">
<g clip-path="url(#clip0_39969_4621)">
<path d="M23.9901 27.2813C24.5086 27.2813 24.9295 26.8612 24.9295 26.3438C24.9295 25.8263 24.5086 25.4062 23.9901 25.4062C23.4716 25.4062 23.0508 25.8263 23.0508 26.3438C23.0508 26.8612 23.4716 27.2813 23.9901 27.2813Z" fill="#17696A"/>
<path d="M23.4535 47.7318C23.6168 47.8482 23.8079 47.9064 23.9995 47.9064C24.191 47.9064 24.3822 47.8482 24.5455 47.7318C34.116 40.9089 43.7255 37.9151 43.7255 23.8764V6.49596C43.7255 6.00853 43.3509 5.6024 42.8643 5.56175L40.4228 5.35814C34.8253 4.89268 29.3184 3.0565 24.4974 0.0487979C24.1928 -0.141266 23.8061 -0.141266 23.5015 0.0487979C18.6801 3.0565 13.1733 4.89268 7.57579 5.3585L5.13462 5.56175C4.6477 5.6024 4.27344 6.00853 4.27344 6.49596V23.8764C4.27344 38.311 15.2325 41.8709 23.4535 47.7318V47.7318ZM6.15211 7.35838L7.7321 7.22691C13.4345 6.7523 19.0456 4.92857 23.9995 1.94394C28.953 4.92857 34.5644 6.7523 40.2665 7.22691L41.8468 7.35838V23.8764C41.8468 36.5352 33.3954 39.2514 23.998 45.8216C15.7506 40.108 6.15211 36.8655 6.15211 23.8764V7.35838Z" fill="#17696A"/>
<path d="M23.4527 40.9171C23.794 41.1497 24.2236 41.1328 24.5476 40.8926C33.0512 35.0182 38.0902 33.0853 38.0902 23.8773V11.581C38.0902 11.117 37.7501 10.7226 37.2903 10.6537C32.7947 9.97955 28.4683 8.58319 24.4309 6.50347C24.1403 6.35369 23.7943 6.37273 23.5279 6.52434C19.502 8.59307 15.1895 9.98248 10.7101 10.6537C10.2503 10.7226 9.91016 11.1166 9.91016 11.581V23.8773C9.91016 33.1721 15.4291 35.4532 23.4527 40.9171V40.9171ZM11.7888 12.3804C15.6955 11.7209 19.4734 10.5347 23.0513 8.84832V22.5937C23.0513 23.1115 23.4718 23.5312 23.9906 23.5312C24.5095 23.5312 24.93 23.1115 24.93 22.5937V8.83953C28.513 10.53 32.2979 11.7194 36.2115 12.3804V23.8773C36.2115 31.4982 32.6347 33.1597 24.93 38.3602V30.0937C24.93 29.5759 24.5095 29.1562 23.9906 29.1562C23.4718 29.1562 23.0513 29.5759 23.0513 30.0937V38.3873C15.8525 33.6046 11.7888 31.5608 11.7888 23.8773V12.3804Z" fill="#17696A"/>
</g>
<defs>
<clipPath id="clip0_39969_4621">
<rect width="48" height="48" fill="white"/>
</clipPath>
</defs>
</svg>

<svg width="48" height="48" fill="none" xmlns="http://www.w3.org/2000/svg"><g clip-path="url(#a)" fill="#17696A"><path d="M23.99 27.281c.519 0 .94-.42.94-.937a.939.939 0 0 0-1.88 0c0 .517.422.937.94.937Z"/><path d="M23.453 47.732a.939.939 0 0 0 1.093 0c9.57-6.823 19.18-9.817 19.18-23.856V6.496a.938.938 0 0 0-.862-.934l-2.441-.204c-5.598-.465-11.105-2.301-15.926-5.31a.941.941 0 0 0-.995 0C18.68 3.058 13.172 4.894 7.575 5.359l-2.441.204a.938.938 0 0 0-.862.934v17.38c0 14.435 10.96 17.995 19.18 23.856ZM6.153 7.358l1.58-.131C13.434 6.752 19.045 4.929 24 1.944c4.953 2.985 10.564 4.808 16.267 5.283l1.58.131v16.518c0 12.66-8.452 15.375-17.849 21.946-8.247-5.714-17.846-8.957-17.846-21.946V7.358Z"/><path d="M23.453 40.917a.934.934 0 0 0 1.095-.024c8.503-5.875 13.542-7.808 13.542-17.016V11.581a.938.938 0 0 0-.8-.927 41.446 41.446 0 0 1-12.86-4.15.957.957 0 0 0-.902.02 41.418 41.418 0 0 1-12.818 4.13.938.938 0 0 0-.8.927v12.296c0 9.295 5.52 11.576 13.543 17.04ZM11.789 12.38A43.273 43.273 0 0 0 23.05 8.848v13.746a.938.938 0 0 0 1.879 0V8.84a43.305 43.305 0 0 0 11.282 3.54v11.497c0 7.621-3.577 9.283-11.282 14.483v-8.266a.938.938 0 0 0-1.879 0v8.293c-7.198-4.782-11.262-6.826-11.262-14.51V12.38Z"/></g><defs><clipPath id="a"><path fill="#fff" d="M0 0h48v48H0z"/></clipPath></defs></svg>
